icons/ok.svg

<svg width="53" height="53" viewBox="0 0 53 53" fill="none" xmlns="http://www.w3.org/2000/svg">
<path d="M8.28125 53C3.70764 53 -1.62066e-07 49.2924 -3.61985e-07 44.7188L-1.95472e-06 8.28125C-2.15464e-06 3.70764 3.70764 -1.62066e-07 8.28125 -3.61985e-07L44.7187 -1.95472e-06C49.2924 -2.15464e-06 53 3.70764 53 8.28125L53 44.7187C53 49.2924 49.2924 53 44.7188 53L8.28125 53Z" fill="#FF8800"/>
<path fill-rule="evenodd" clip-rule="evenodd" d="M18.9976 18.4237C23.4185 18.4237 27.0225 22.0277 27.0225 26.4488C27.0225 30.9176 23.4185 34.5217 18.9976 34.5217C14.5767 34.5217 10.9727 30.9176 10.9727 26.4488C10.9727 22.0277 14.5767 18.4237 18.9976 18.4237ZM18.9976 23.133C17.1716 23.133 15.6819 24.6227 15.6819 26.4488C15.6819 28.3227 17.1716 29.8125 18.9976 29.7644C20.8237 29.7644 22.3132 28.2746 22.3132 26.4488C22.3132 24.6227 20.8237 23.133 18.9976 23.133Z" fill="white"/>
<path d="M31.6838 18.5679C32.5968 20.0095 33.2215 21.5953 33.606 23.229L38.0268 18.6639C38.94 17.751 40.4295 17.751 41.3427 18.6639C42.2556 19.5769 42.2556 21.0666 41.3427 21.9795L36.9216 26.4006L41.3427 30.8215C41.775 31.302 42.0153 31.8787 42.0153 32.5034C42.0153 33.1281 41.8232 33.7047 41.3427 34.1852C40.4295 35.0983 38.94 35.0983 38.0268 34.1852L33.5578 29.7162C33.1734 31.3501 32.5488 32.9359 31.6357 34.3775C30.963 35.4827 29.5214 35.8191 28.4162 35.1944C27.3109 34.4736 27.0227 33.032 27.6954 31.9267C29.7617 28.6591 29.7617 24.3824 27.6954 21.1147C26.9746 20.0095 27.3109 18.5197 28.4162 17.8471C29.5214 17.1263 31.011 17.4626 31.6838 18.5679Z" fill="white"/>
</svg>

<svg width="53" height="53" fill="none" xmlns="http://www.w3.org/2000/svg"><path d="M8.281 53A8.281 8.281 0 0 1 0 44.719V8.28A8.281 8.281 0 0 1 8.281 0H44.72A8.281 8.281 0 0 1 53 8.281V44.72A8.281 8.281 0 0 1 44.719 53H8.28Z" fill="#F80"/><path fill-rule="evenodd" clip-rule="evenodd" d="M18.998 18.424c4.42 0 8.024 3.604 8.024 8.025 0 4.469-3.603 8.073-8.024 8.073-4.421 0-8.025-3.604-8.025-8.073 0-4.421 3.604-8.025 8.025-8.025Zm0 4.709a3.322 3.322 0 0 0-3.316 3.316c0 1.874 1.49 3.363 3.316 3.315a3.322 3.322 0 0 0 3.315-3.315 3.322 3.322 0 0 0-3.315-3.316Z" fill="#fff"/><path d="M31.684 18.568c.913 1.441 1.537 3.027 1.922 4.661l4.42-4.565a2.35 2.35 0 0 1 3.317 0 2.35 2.35 0 0 1 0 3.316l-4.421 4.42 4.42 4.422c.433.48.673 1.057.673 1.681 0 .625-.192 1.202-.672 1.682a2.35 2.35 0 0 1-3.316 0l-4.47-4.469c-.384 1.634-1.008 3.22-1.921 4.661-.673 1.106-2.115 1.442-3.22.817-1.105-.72-1.393-2.162-.72-3.267 2.066-3.268 2.066-7.545 0-10.812-.721-1.105-.385-2.595.72-3.268 1.105-.72 2.595-.384 3.268.72Z" fill="#fff"/></svg>
